X:1
T:Mozart
M:2/4
L:1/16
K:C
V:1
C4C4|G4G4|A4A4|G4G4|F4F4|E4E4|D4D4|C8|G4G4|F4F4|E4E4|D8|G4G4|F4F4|E4E4|D4D4|C4C4|G4G4|A4A4|G4G4|F4F4|E4E4|D4D4|C8|
dcBcBcBc | ag^fg^fg^fg | ^gac'bd'c'ba | age'd'c'bag2 | gfd'c'bagf | fec'bagfe | d2a2g2B2 | c4c,4 |

dcBcBcBc | ag^fg^fg^fg | ^gac'bd'c'ba | age'd'c'bag2 | gfd'c'bagf | fec'bagfe | d2a2g2B2 | c4c,4 |

